contributed-vectors/plato_alt.svg

<?xml version="1.0" encoding="UTF-8" standalone="no"?>
<svg
   xmlns:dc="http://purl.org/dc/elements/1.1/"
   xmlns:cc="http://creativecommons.org/ns#"
   xmlns:rdf="http://www.w3.org/1999/02/22-rdf-syntax-ns#"
   xmlns:svg="http://www.w3.org/2000/svg"
   xmlns="http://www.w3.org/2000/svg"
   xmlns:sodipodi="http://sodipodi.sourceforge.net/DTD/sodipodi-0.dtd"
   xmlns:inkscape="http://www.inkscape.org/namespaces/inkscape"
   width="192"
   height="192"
   viewBox="0 0 192 192"
   fill="none"
   version="1.1"
   id="svg26"
   sodipodi:docname="plato_alt.svg"
   inkscape:version="1.0.1 (3bc2e813f5, 2020-09-07)"
   inkscape:export-filename="/home/jphilippe/github/delta/android/contributed-vectors/plato_alt.png"
   inkscape:export-xdpi="96"
   inkscape:export-ydpi="96">
  <metadata
     id="metadata32">
    <rdf:RDF>
      <cc:Work
         rdf:about="">
        <dc:format>image/svg+xml</dc:format>
        <dc:type
           rdf:resource="http://purl.org/dc/dcmitype/StillImage" />
      </cc:Work>
    </rdf:RDF>
  </metadata>
  <defs
     id="defs30" />
  <sodipodi:namedview
     pagecolor="#ffffff"
     bordercolor="#666666"
     borderopacity="1"
     objecttolerance="10"
     gridtolerance="10"
     guidetolerance="10"
     inkscape:pageopacity="0"
     inkscape:pageshadow="2"
     inkscape:window-width="1884"
     inkscape:window-height="1052"
     id="namedview28"
     showgrid="false"
     inkscape:zoom="3.3697917"
     inkscape:cx="96"
     inkscape:cy="96"
     inkscape:window-x="36"
     inkscape:window-y="0"
     inkscape:window-maximized="1"
     inkscape:current-layer="svg26" />
  <g
     id="g869"
     transform="matrix(1.2307692,0,0,1.2307692,-23.384543,-20.923074)">
    <path
       d="M 40,55 91.5,25.5 c 0,0 2.5,-1.5 5.5,-1.5 3,0 5.5,1.5 5.5,1.5 l 52,29.5 c 0,0 2.5,1.5 4,4 1.5,2.5 1.5,5 1.5,5 v 60.5 c 0,0 0,6 -1.5,7.5 -1.5,1.5 -4,3.5 -4,3.5 l -52,29 c 0,0 -3,1.5 -5.5,1.5 -2.5,0 -5.5,-1.5 -5.5,-1.5 L 40,135.5 c 0,0 -3,-1.5 -4.5,-3.5 C 34,130 34,124.5 34,124.5 V 64 c 0,0 0,-3 1.5,-5 C 37,57 40,55 40,55 Z"
       fill="#ffffff"
       stroke="#ffffff"
       id="path2" />
    <path
       d="m 47.5,57.5 45,-26 c 0,0 1,-1 4.25,-1 3.25,0 4.25,1 4.25,1 l 46,26 c 0,0 2,1 2,3.5 0,2.5 -2,3.5 -2,3.5 L 129,74.6739 124,89.5 114,83.1522 101,90.5 c 0,0 -2,1.5 -4.25,1.5 -2.25,0 -4.25,-1.5 -4.25,-1.5 l -45,-26 c 0,0 -2.5,-1 -2.5,-3.5 0,-2.5 2.5,-3.5 2.5,-3.5 z"
       fill="#9abeff"
       stroke="#9abeff"
       id="path4" />
    <ellipse
       cx="74.5"
       cy="60"
       rx="8.5"
       ry="5"
       fill="#ffffff"
       id="ellipse6" />
    <ellipse
       cx="97.5"
       cy="60"
       rx="8.5"
       ry="5"
       fill="#ffffff"
       id="ellipse8" />
    <ellipse
       cx="115.5"
       cy="109"
       rx="8.5"
       ry="5"
       transform="rotate(-51.6792,115.5,109)"
       fill="#728dbe"
       id="ellipse10" />
    <ellipse
       cx="140.19299"
       cy="94.768997"
       rx="8.5"
       ry="5"
       transform="rotate(-51.6792,140.193,94.769)"
       fill="#728dbe"
       id="ellipse12" />
    <ellipse
       cx="119.5"
       cy="60"
       rx="8.5"
       ry="5"
       fill="#ffffff"
       id="ellipse14" />
    <ellipse
       cx="54.5"
       cy="95"
       rx="8.5"
       ry="5"
       transform="rotate(-128.259,54.5,95)"
       fill="#728dbe"
       id="ellipse16" />
    <ellipse
       cx="54.5"
       cy="120"
       rx="8.5"
       ry="5"
       transform="rotate(-128.259,54.5,120)"
       fill="#728dbe"
       id="ellipse18" />
    <ellipse
       cx="78.5"
       cy="109"
       rx="8.5"
       ry="5"
       transform="rotate(-128.259,78.5,109)"
       fill="#728dbe"
       id="ellipse20" />
    <ellipse
       cx="78.5"
       cy="134"
       rx="8.5"
       ry="5"
       transform="rotate(-128.259,78.5,134)"
       fill="#728dbe"
       id="ellipse22" />
    <path
       d="m 124.022,126.328 -1.5,0.334 c -1.009,0.224 -2.046,0.29 -3.075,0.197 l -1.197,-0.109 -0.875,-0.125 c -0.581,-0.083 -1.17,-0.088 -1.753,-0.015 -0.742,0.093 -1.464,0.311 -2.134,0.646 l -0.083,0.042 c -0.926,0.462 -1.74,1.12 -2.386,1.928 l -0.288,0.36 c -0.485,0.606 -0.878,1.28 -1.166,2.001 l -0.204,0.511 c -0.238,0.596 -0.361,1.232 -0.361,1.874 v 0.442 c 0,0.708 0.21,1.4 0.602,1.989 0.263,0.394 0.601,0.732 0.995,0.995 l 0.157,0.105 c 0.493,0.328 1.045,0.557 1.625,0.673 l 0.787,0.157 c 0.555,0.111 1.119,0.167 1.684,0.167 h 0.919 c 0.818,0 1.632,-0.1 2.425,-0.299 L 121,137.5 l 3.304,-1.239 c 0.463,-0.174 0.913,-0.382 1.346,-0.622 l 3.85,-2.139 4,-3 4,-3.75 3.5,-4.25 2.044,-2.862 c 0.304,-0.425 0.573,-0.873 0.807,-1.34 l 0.478,-0.956 C 144.77,116.459 145,115.486 145,114.5 v -1.005 c 0,-0.325 -0.076,-0.647 -0.221,-0.938 -0.452,-0.903 -1.482,-1.356 -2.453,-1.079 l -0.993,0.284 c -0.546,0.156 -1.044,0.449 -1.445,0.85 L 137,115.5 l -4,4.5 -3.053,3.053 c -0.629,0.629 -1.338,1.17 -2.11,1.611 l -1.023,0.585 c -0.871,0.498 -1.812,0.862 -2.792,1.079 z"
       fill="#728dbe"
       stroke="#728dbe"
       id="path24" />
  </g>
</svg>

<svg width="192" height="192" viewBox="0 0 192 192" fill="none" xmlns="http://www.w3.org/2000/svg">
<path d="M40 55L91.5 25.5C91.5 25.5 94 24 97 24C100 24 102.5 25.5 102.5 25.5L154.5 55C154.5 55 157 56.5 158.5 59C160 61.5 160 64 160 64V124.5C160 124.5 160 130.5 158.5 132C157 133.5 154.5 135.5 154.5 135.5L102.5 164.5C102.5 164.5 99.5 166 97 166C94.5 166 91.5 164.5 91.5 164.5L40 135.5C40 135.5 37 134 35.5 132C34 130 34 124.5 34 124.5V64C34 64 34 61 35.5 59C37 57 40 55 40 55Z" fill="white" stroke="white"/>
<path d="M47.5 57.5L92.5 31.5C92.5 31.5 93.5 30.5 96.75 30.5C100 30.5 101 31.5 101 31.5L147 57.5C147 57.5 149 58.5 149 61C149 63.5 147 64.5 147 64.5L129 74.6739L124 89.5L114 83.1522L101 90.5C101 90.5 99 92 96.75 92C94.5 92 92.5 90.5 92.5 90.5L47.5 64.5C47.5 64.5 45 63.5 45 61C45 58.5 47.5 57.5 47.5 57.5Z" fill="#9ABEFF" stroke="#9ABEFF"/>
<ellipse cx="74.5" cy="60" rx="8.5" ry="5" fill="white"/>
<ellipse cx="97.5" cy="60" rx="8.5" ry="5" fill="white"/>
<ellipse cx="115.5" cy="109" rx="8.5" ry="5" transform="rotate(-51.6792 115.5 109)" fill="#728DBE"/>
<ellipse cx="140.193" cy="94.769" rx="8.5" ry="5" transform="rotate(-51.6792 140.193 94.769)" fill="#728DBE"/>
<ellipse cx="119.5" cy="60" rx="8.5" ry="5" fill="white"/>
<ellipse cx="54.5" cy="95" rx="8.5" ry="5" transform="rotate(-128.259 54.5 95)" fill="#728DBE"/>
<ellipse cx="54.5" cy="120" rx="8.5" ry="5" transform="rotate(-128.259 54.5 120)" fill="#728DBE"/>
<ellipse cx="78.5" cy="109" rx="8.5" ry="5" transform="rotate(-128.259 78.5 109)" fill="#728DBE"/>
<ellipse cx="78.5" cy="134" rx="8.5" ry="5" transform="rotate(-128.259 78.5 134)" fill="#728DBE"/>
<path d="M124.022 126.328L122.522 126.662C121.513 126.886 120.476 126.952 119.447 126.859L118.25 126.75L117.375 126.625C116.794 126.542 116.205 126.537 115.622 126.61C114.88 126.703 114.158 126.921 113.488 127.256L113.405 127.298C112.479 127.76 111.665 128.418 111.019 129.226L110.731 129.586C110.246 130.192 109.853 130.866 109.565 131.587L109.361 132.098C109.123 132.694 109 133.33 109 133.972V134.414C109 135.122 109.21 135.814 109.602 136.403C109.865 136.797 110.203 137.135 110.597 137.398L110.754 137.503C111.247 137.831 111.799 138.06 112.379 138.176L113.166 138.333C113.721 138.444 114.285 138.5 114.85 138.5H115.769C116.587 138.5 117.401 138.4 118.194 138.201L121 137.5L124.304 136.261C124.767 136.087 125.217 135.879 125.65 135.639L129.5 133.5L133.5 130.5L137.5 126.75L141 122.5L143.044 119.638C143.348 119.213 143.617 118.765 143.851 118.298L144.329 117.342C144.77 116.459 145 115.486 145 114.5V113.495C145 113.17 144.924 112.848 144.779 112.557C144.327 111.654 143.297 111.201 142.326 111.478L141.333 111.762C140.787 111.918 140.289 112.211 139.888 112.612L137 115.5L133 120L129.947 123.053C129.318 123.682 128.609 124.223 127.837 124.664L126.814 125.249C125.943 125.747 125.002 126.111 124.022 126.328Z" fill="#728DBE" stroke="#728DBE"/>
</svg>
